X:825
T:the Wheels of the World (jig)
T:Coleman's
R:Jig
O:Ireland
B:Ceol Rince 3 n34
B:O'Neill's 777
S:O'Neill's 777
Z:Transcription:Stephen Foy, chords:Mike Long
M:6/8
L:1/8
K:G
G|\
"D"FDD ADD|"G"BGB "C"cBA|"G"Bcd "C"ecA|"C"ABG "D"FED|\
"G"~G3 "D"A2A|"G"BGB "C"cBA|"G"Bcd "C"ecA|"D"AGG "G"G2:|
B|\
"D"def "G"gdB|"G"dBG "C"c2A|"G"Bcd "C"ecA|"C"ABG "D"FED|\
"D"def "G"gdB|"G"dBG "C"c2A|"G"Bcd "C"ecA|"D"AGG "G"G2B||
"D"def "G"gdB|"G"dBG "C"c2A|"G"Bcd "C"ecA|"C"ABG "D"FED|\
"G"~G3 "D"A2A|"G"BGB "C"cBA|"G"Bcd "C"ecA|"D"AGG "G"G2|]
